X: 2320
T: Bag Of Potatoes, The
R: reel
M: 4/4
K: Gmajor
|:Bdd2 ceed|BddB A2G2|Bdd2 ceed|g2bg a2g2:|
|:gabg eaa2|gabg e2d2|gabg eaa2|gedB A4:|

